X:WFS 13-07 09
T:Horses Brawl
N:Featured, with dance instructions, in Arbeau's Orchesographie (1589)
S:Walthamstow session 2013-07-09
Z:<djl@colourcountry.net>
M:4/4
K:G
P:A
G3A B2B2 c2B2 A2c2 |1,3 B2A2 G2F2 E4 D4 :|2,4 B2G2 A2F2 G4 G4 :|
P:B
d2cB A2B2 c2BAGAB2 |1,3 A2G2 F2G2 A4 A4 :|2,4 A2G2 G2F2 G4 G4 :|
P:C
_B2AG _B2AG F2G2 A4 D2E2 F2G2 |1,3 A2B2 A2G2 :|2,4 G2F2 G4 :|

